src/svg/uf03e-image,photo,picture-o.svg

<!-- Generated by IcoMoon.io -->
<svg version="1.1" xmlns="http://www.w3.org/2000/svg" width="34" height="32" viewBox="0 0 34 32">
<path d="M11.429 10.286c0 1.893-1.536 3.429-3.429 3.429s-3.429-1.536-3.429-3.429 1.536-3.429 3.429-3.429 3.429 1.536 3.429 3.429zM29.714 17.143v8h-25.143v-3.429l5.714-5.714 2.857 2.857 9.143-9.143zM31.429 4.571h-28.571c-0.304 0-0.571 0.268-0.571 0.571v21.714c0 0.304 0.268 0.571 0.571 0.571h28.571c0.304 0 0.571-0.268 0.571-0.571v-21.714c0-0.304-0.268-0.571-0.571-0.571zM34.286 5.143v21.714c0 1.571-1.286 2.857-2.857 2.857h-28.571c-1.571 0-2.857-1.286-2.857-2.857v-21.714c0-1.571 1.286-2.857 2.857-2.857h28.571c1.571 0 2.857 1.286 2.857 2.857z"></path>
</svg>

<svg xmlns="http://www.w3.org/2000/svg" width="34" height="32"><path d="M11.429 10.286a3.43 3.43 0 0 1-6.858 0 3.43 3.43 0 0 1 6.858 0zm18.285 6.857v8H4.571v-3.429L10.285 16l2.857 2.857 9.143-9.143zm1.715-12.572H2.858a.587.587 0 0 0-.571.571v21.714c0 .304.268.571.571.571h28.571a.587.587 0 0 0 .571-.571V5.142a.587.587 0 0 0-.571-.571zm2.857.572v21.714a2.866 2.866 0 0 1-2.857 2.857H2.858a2.866 2.866 0 0 1-2.857-2.857V5.143a2.866 2.866 0 0 1 2.857-2.857h28.571a2.866 2.866 0 0 1 2.857 2.857z"/></svg>
